X:1
T:566 - SaudaÃ§Ã£o
T:Letra:  JoÃ£o Dieners (1889-1963)
T:MÃºsica: AnÃ´nimo
M:4/4
L:1/8
K:Bb
V:1
(DE) | "Bb"FF FF G2 F2 | F4 B2 (AB) | "F"cc cc d2 "F7"c2 | "Bb"B4 F2 FF | "Eb"GG GG GB AG | "D"A4 z2 AA | "Gm"BB BB Bd "C7"cB | "F"c4 z2 "F7"dc | "Bb"BB BB "Eb"cB AG | "Bb"F4 z2 Bd | "F"cc cc cc "F7"BA | "Bb"B4 z2 || F2 | "F7"e2 e2 e3 e | "Bb"dd d>c d2 d2 | "F"c2 c2 c3 c | dc "C7"d=e "F"Hf2 "F7"He2 | "Bb"d2 d2 d3 B | "Eb"cB AG "Bb"F2 F2 | "Eb"G2 e2 e3 e | "F7"dc BA "Bb"HB2 |] 
w: 1.~Sau_da-mo-vos, ir-mÃ£os em Cris-to, Lem_bran-do do que te-mos vis-to; Nes-ses a-nos pe-las lu-tas, ten-ta-Ã§Ãµes, Fo-ram a-ten-di-das nos-sas pe-ti-Ã§Ãµes. To-da glÃ³-ria se-jaao no-me do Se-nhor; Vin-dea e-le to-dos en-to-ar lou-vor!     Bem al-toa-go-ra va-mos nÃ³s can-tar,    Que ter-rae cÃ©us vi-rÃ£o nos a-ju-dar.    A-tÃ© a-qui Deus mes-mo nos gui-ou,    E com a su-a mÃ£o nos a-ju-dou.
w: 2.~Um_ di-a tÃ£o glo-rio-so te-mos, E ao nos-so Pai a-gra-de-ce-mos; Pois Ã© e-le quem nos dÃ¡ re-al pra-zer EÃ© fi-el em nos guar-dar e pro-te-ger. Vin-de vÃ³s, ir-mÃ£os, co-nos-coa Deus can-tar; Des-te go-zo vin-de, pois, par-ti-ci-par!
w: 3.~A_le-gres ho-je ju-bi-le-mos, Ao_ nos-so Sal-va-dor can-te-mos; E-le co-mo fi-lhos seus nos es-co-lheu, Ri-cas bÃªn-Ã§Ã£os e-le jÃ¡ nos con-ce-deu. Se-ja'A-van-te!'O nos-so le-ma tri-un-fal, Pois se-gui-mos pa-rao lar ce-les-ti-al!
W: 
W:
W: 1. Saudamo-vos, irmÃ£os em Cristo,
W: Lembrando do que temos visto;
W: Nesses anos pelas lutas, tentaÃ§Ãµes,
W: Foram atendidas nossas petiÃ§Ãµes.
W: Toda glÃ³ria seja ao nome do Senhor;
W: Vinde a ele todos entoar louvor!
W: 
W:    (Estribilho)
W:    Bem alto agora vamos nÃ³s cantar,
W:    Que terra e cÃ©us virÃ£o nos ajudar.
W:    AtÃ© aqui Deus mesmo nos guiou,
W:    E com a sua mÃ£o nos ajudou.
W: 
W:
W:
W: 2. Um dia tÃ£o glorioso temos,
W: E ao nosso Pai agradecemos;
W: Pois Ã© ele quem nos dÃ¡ real prazer
W: E Ã© fiel em nos guardar e proteger.
W: Vinde vÃ³s, irmÃ£os, conosco a Deus cantar;
W: Deste gozo vinde, pois, participar!
W: 
W: 3. Alegres hoje jubilemos,
W: Ao nosso Salvador cantemos;
W: Ele como filhos seus nos escolheu,
W: Ricas bÃªnÃ§Ã£os ele jÃ¡ nos concedeu.
W: Seja 'Avante!' O nosso lema triunfal,
W: Pois seguimos para o lar celestial!
W:         
W: 

